storage/app/icons/phosphoricons/fill/user-rectangle-fill.svg

<svg xmlns="http://www.w3.org/2000/svg" fill="currentColor" viewBox="0 0 256 256"><path d="M172 120a44 44 0 1 1-44-44 44 44 0 0 1 44 44m60-64v144a16 16 0 0 1-16 16H40a16 16 0 0 1-16-16V56a16 16 0 0 1 16-16h176a16 16 0 0 1 16 16m-16 144V56H40v144h14.68a80 80 0 0 1 29.41-34.84 4 4 0 0 1 4.83.31 59.82 59.82 0 0 0 78.16 0 4 4 0 0 1 4.83-.31A80 80 0 0 1 201.32 200z"/></svg>

<svg xmlns="http://www.w3.org/2000/svg" viewBox="0 0 256 256" fill="currentColor"><path d="M172,120a44,44,0,1,1-44-44A44,44,0,0,1,172,120Zm60-64V200a16,16,0,0,1-16,16H40a16,16,0,0,1-16-16V56A16,16,0,0,1,40,40H216A16,16,0,0,1,232,56ZM216,200V56H40V200H54.68a80,80,0,0,1,29.41-34.84,4,4,0,0,1,4.83.31,59.82,59.82,0,0,0,78.16,0,4,4,0,0,1,4.83-.31A80,80,0,0,1,201.32,200H216Z"/></svg>
